X:1
T: Coco Roco
C: Keith Murphy
C: Black Isle Music, BMI
K:EMix
M:6/8
|:"E7"E2B AAB|dBA GAB|E2 B AAB|"G"=G2G "D"FED|
"E7"E2B AAB|dBde2f|"C"=g2 g "D"fed|"B7"BAG "E"E2D:|
|:"Em"e2f "C"=gfe|"D"dBA "Bm"B2d|"Em"e2f "A7" =g^ga|"B7"bag "Em"e2B|
"Em"e2f "C"=gfe|"D"dBA "Bm"Bde|"A7"age dBA|"E"GAB "D"D3:|
